svgs/linkora.svg

<svg width="192" height="192" viewBox="0 0 192 192" fill="none" xmlns="http://www.w3.org/2000/svg">
<path d="M170 86.5862V75.3701C170 68.5039 164.4 62.9377 157.493 62.9377H94.5474C91.1385 62.9377 87.8773 61.5545 85.5183 59.1082L69.8211 42.8295C67.4622 40.3832 64.201 39 60.792 39H34C27.3726 39 22 44.3726 22 51V141.568C22 148.434 27.5996 154 34.507 154H102M146.028 106.342H158.014C164.634 106.342 170 111.677 170 118.257V130.171M146.028 154H134.042C127.423 154 122.056 148.666 122.056 142.086V130.171M149.155 127.063L142.901 133.279" stroke="black" stroke-width="12" stroke-linecap="round"/>
</svg>

<svg width="192" height="192" fill="none" xmlns="http://www.w3.org/2000/svg"><path d="M170 86.586V74.37c0-6.866-5.6-12.432-12.507-12.432H94.547c-3.409 0-6.67-1.384-9.029-3.83L69.821 41.83A12.543 12.543 0 0 0 60.792 38H34c-6.627 0-12 5.373-12 12v91.568C22 148.434 27.6 154 34.507 154H102m44.028-47.658h11.986c6.62 0 11.986 5.335 11.986 11.915v11.914M146.028 154h-11.986c-6.619 0-11.986-5.334-11.986-11.914v-11.915m27.099-3.108-6.254 6.216" stroke="#000" stroke-width="12" stroke-linecap="round"/></svg>
